svgs/sharp-regular/square-bolt.svg

<svg xmlns="http://www.w3.org/2000/svg" viewBox="0 0 448 512"><!--! Font Awesome Pro 6.6.0 by @fontawesome - https://fontawesome.com License - https://fontawesome.com/license (Commercial License) Copyright 2024 Fonticons, Inc. --><path d="M48 80l0 352 352 0 0-352L48 80zM0 32l48 0 352 0 48 0 0 48 0 352 0 48-48 0L48 480 0 480l0-48L0 80 0 32zM200 272l-88 0 0-24L288 112 248 240l88 0 0 24L160 400l40-128z"/></svg>

<svg xmlns="http://www.w3.org/2000/svg" viewBox="0 0 448 512"><!--! Font Awesome Pro 6.5.2 by @fontawesome - https://fontawesome.com License - https://fontawesome.com/license (Commercial License) Copyright 2024 Fonticons, Inc. --><path d="M48 80V432H400V80H48zM0 32H48 400h48V80 432v48H400 48 0V432 80 32zM200 272H112V248L288 112 248 240h88v24L160 400l40-128z"/></svg>
